images/icon-external-link-hover.svg

<svg height="20" viewBox="0 0 20 20" width="20" xmlns="http://www.w3.org/2000/svg"><path d="m0 1.3386614h6.99696658v2.5974026c-1.74924165 0-5.24772494 0-6.99696658 0 0-.64935065 0-1.94805195 0-2.5974026zm0 2.2577422h2.62891812v13.8061938c-.65722953 0-1.97168859 0-2.62891812 0 0-3.4515485 0-10.35464535 0-13.8061938zm0 13.8061938h17.0475228v2.5974026c-4.2618807 0-12.78564209 0-17.0475228 0 0-.6493506 0-1.9480519 0-2.5974026zm16.4610719-4.3156844h2.6086957v6.913087c-.652174 0-1.9565218 0-2.6086957 0 0-1.7282717 0-5.1848152 0-6.913087zm-8.71587472-1.7782216c2.26491412-2.5624376 6.79474222-7.6873128 9.05965632-10.2497504.4903943.42457545 1.4711829 1.27372635 1.9615772 1.6983018-2.2548028 2.56243755-6.7644084 7.6873126-9.01921124 10.2497502-.50050557-.4245754-1.50151671-1.2737262-2.00202228-1.6983016zm12.21435792-11.2487514v2.1578422c-2.4115267-.014985-7.2345803-.044955-9.6461071-.05994 0-.53946055 0-1.61838165 0-2.1578422 2.4115268.014985 7.2345804.044955 9.6461071.05994zm-.0202224 9.5104896c-.5460061 0-1.6380182 0-2.1840243 0 .0151669-2.3776224.0455006-7.1328672.0606675-9.5104896h2.1840241c-.0151668 2.3776224-.0455005 7.1328672-.0606673 9.5104896z" fill="#d52b1e"/></svg>

<?xml version="1.0" encoding="UTF-8"?>
<svg width="20px" height="20px" viewBox="0 0 20 20" version="1.1" xmlns="http://www.w3.org/2000/svg" xmlns:xlink="http://www.w3.org/1999/xlink">
    <!-- Generator: Sketch 46.2 (44496) - http://www.bohemiancoding.com/sketch -->
    <title>icon-external-link-hover</title>
    <desc>Created with Sketch.</desc>
    <defs></defs>
    <g id="Page-1" stroke="none" stroke-width="1" fill="none" fill-rule="evenodd">
        <path d="M0,1.3386614 C1.74924164,1.3386614 5.24772493,1.3386614 6.99696658,1.3386614 C6.99696658,1.98801205 6.99696658,3.28671335 6.99696658,3.936064 C5.24772493,3.936064 1.74924164,3.936064 0,3.936064 C0,3.28671335 0,1.98801205 0,1.3386614 Z M0,3.5964036 C0.657229531,3.5964036 1.97168859,3.5964036 2.62891812,3.5964036 C2.62891812,7.04795205 2.62891812,13.9510489 2.62891812,17.4025974 C1.97168859,17.4025974 0.657229531,17.4025974 0,17.4025974 C0,13.9510489 0,7.04795205 0,3.5964036 Z M0,17.4025974 C4.26188071,17.4025974 12.7856421,17.4025974 17.0475228,17.4025974 C17.0475228,18.0519481 17.0475228,19.3506494 17.0475228,20 C12.7856421,20 4.26188071,20 0,20 C0,19.3506494 0,18.0519481 0,17.4025974 L0,17.4025974 Z M16.4610719,13.086913 C17.1132458,13.086913 18.4175936,13.086913 19.0697676,13.086913 C19.0697676,14.8151848 19.0697676,18.2717283 19.0697676,20 C18.4175936,20 17.1132458,20 16.4610719,20 C16.4610719,18.2717283 16.4610719,14.8151848 16.4610719,13.086913 L16.4610719,13.086913 Z M7.74519718,11.3086914 C10.0101113,8.7462538 14.5399394,3.6213786 16.8048535,1.058941 C17.2952478,1.48351645 18.2760364,2.33266735 18.7664307,2.7572428 C16.5116279,5.31968035 12.0020223,10.4445554 9.74721946,13.006993 C9.24671389,12.5824176 8.24570275,11.7332668 7.74519718,11.3086914 L7.74519718,11.3086914 Z M19.9595551,0.05994 C19.9595551,0.59940055 19.9595551,1.67832165 19.9595551,2.2177822 C17.5480284,2.2027972 12.7249748,2.1728272 10.313448,2.1578422 C10.313448,1.61838165 10.313448,0.53946055 10.313448,0 C12.7249748,0.014985 17.5480284,0.044955 19.9595551,0.05994 L19.9595551,0.05994 Z M19.9393327,9.5704296 C19.3933266,9.5704296 18.3013145,9.5704296 17.7553084,9.5704296 C17.7704753,7.1928072 17.800809,2.4375624 17.8159759,0.05994 C18.3619819,0.05994 19.453994,0.05994 20,0.05994 C19.9848332,2.4375624 19.9544995,7.1928072 19.9393327,9.5704296 L19.9393327,9.5704296 Z" id="icon-external-link-hover" fill="#D52B1E" fill-rule="nonzero"></path>
    </g>
</svg>
